assets/svg/1f1e8-1f1f3.svg

<svg xmlns="http://www.w3.org/2000/svg" viewBox="0 0 64 64" enable-background="new 0 0 64 64"><circle fill="#ed4c5c" cx="32" cy="32" r="30"/><g fill="#ffe62e"><path d="M22 28.371 30.03 34 27 24.844 35 19 25.09 19 22 10 19 19 9 19 16.999 24.844 13.965 34z"/><path d="m35.27 35.28l-2.27.556 2.24.861-.01 2.303 1.439-1.75 2.22.83-1.336-1.9 1.447-1.769-2.309.521-1.361-1.932z"/><path d="m38.71 28.467l-1.71 1.531 2.29-.178.97 2.18.487-2.285 2.253-.201-1.95-1.204.487-2.31-1.758 1.513-1.988-1.224z"/><path d="m39.28 20.729l.686 2.271.732-2.23 2.302.029-1.83-1.449.7-2.21-1.82 1.319-1.85-1.459.652 2.309-1.852 1.341z"/><path d="m35.27 12.723l.06 2.277 1.361-1.93 2.309.519-1.435-1.749 1.323-1.919-2.206.843-1.452-1.764.01 2.302-2.24.86z"/></g></svg>

<svg xmlns="http://www.w3.org/2000/svg" width="64" height="64" viewBox="0 0 64 64"><circle fill="#ED4C5C" cx="32" cy="32" r="30"/><path fill="#FFE62E" d="M22 28.371L30.034 34l-3.033-9.156L35 19h-9.91L22 10l-3 9H9l7.999 5.844L13.965 34zM35.272 35.277L33 35.836l2.242.861L35.233 39l1.436-1.748 2.22.827-1.336-1.903L39 34.411l-2.309.521L35.329 33zM38.71 28.467L37 29.998l2.288-.178.971 2.18.488-2.285L43 29.514l-1.954-1.207.491-2.307-1.758 1.513-1.988-1.224zM39.278 20.729L39.966 23l.732-2.23 2.302.029-1.829-1.449.699-2.207-1.825 1.316L38.199 17l.653 2.309L37 20.65zM35.272 12.723L35.327 15l1.364-1.933 2.309.522-1.435-1.749 1.323-1.919-2.206.843L35.232 9l.009 2.302-2.241.86z"/></svg>
